assets/arrow-down-fill.svg

<svg xmlns="http://www.w3.org/2000/svg" fill="none" viewBox="0 0 28 28">
  <mask id="a" fill="#fff">
    <path fill-rule="evenodd" d="M0 14c0 7.732 6.26801 14 14 14 7.732 0 14-6.268 14-14 0-7.73199-6.268-14-14-14C6.26801 0 0 6.26801 0 14Zm14.5303 10.5303 4.773-4.7729c.2929-.2929.2929-.7678 0-1.0607-.2929-.2929-.7678-.2929-1.0607 0L14.75 22.1893V4c0-.41421-.3358-.75-.75-.75s-.75.33579-.75.75v18.1893l-3.49264-3.4926c-.29289-.2929-.76777-.2929-1.06066 0s-.29289.7678 0 1.0607l4.773 4.7729c.2929.2929.7677.2929 1.0606 0Z" clip-rule="evenodd"/>
  </mask>
  <path fill="#2A2238" fill-rule="evenodd" d="M0 14c0 7.732 6.26801 14 14 14 7.732 0 14-6.268 14-14 0-7.73199-6.268-14-14-14C6.26801 0 0 6.26801 0 14Zm14.5303 10.5303 4.773-4.7729c.2929-.2929.2929-.7678 0-1.0607-.2929-.2929-.7678-.2929-1.0607 0L14.75 22.1893V4c0-.41421-.3358-.75-.75-.75s-.75.33579-.75.75v18.1893l-3.49264-3.4926c-.29289-.2929-.76777-.2929-1.06066 0s-.29289.7678 0 1.0607l4.773 4.7729c.2929.2929.7677.2929 1.0606 0Z" clip-rule="evenodd"/>
  <path fill="#2A2238" d="m19.3033 19.7574-1.0607-1.0607 1.0607 1.0607Zm-4.773 4.7729 1.0607 1.0607-1.0607-1.0607Zm4.773-5.8336 1.0607-1.0607-1.0607 1.0607Zm-1.0607 0L17.182 17.636l1.0606 1.0607ZM14.75 22.1893h-1.5v3.6214l2.5607-2.5607-1.0607-1.0607Zm-1.5 0L12.1893 23.25l2.5607 2.5607v-3.6214h-1.5Zm-3.49264-3.4926L8.6967 19.7574l1.06066-1.0607ZM8.6967 19.7574l1.06066-1.0607-1.06066 1.0607Zm4.773 4.7729L12.409 25.591l1.0607-1.0607ZM14 26.5C7.09644 26.5 1.5 20.9036 1.5 14h-3c0 8.5604 6.93959 15.5 15.5 15.5v-3ZM26.5 14c0 6.9036-5.5964 12.5-12.5 12.5v3c8.5604 0 15.5-6.9396 15.5-15.5h-3ZM14 1.5c6.9036 0 12.5 5.59644 12.5 12.5h3c0-8.56041-6.9396-15.5-15.5-15.5v3ZM1.5 14C1.5 7.09644 7.09644 1.5 14 1.5v-3C5.43959-1.5-1.5 5.43959-1.5 14h3Zm16.7426 4.6967-4.7729 4.773 2.1213 2.1213 4.773-4.773-2.1214-2.1213Zm0 1.0607c-.2929-.2929-.2929-.7678 0-1.0607l2.1214 2.1213c.8786-.8787.8786-2.3033 0-3.182l-2.1214 2.1214Zm1.0607 0c-.2929.2929-.7678.2929-1.0607 0l2.1214-2.1214c-.8787-.8786-2.3033-.8786-3.182 0l2.1213 2.1214ZM15.8107 23.25l3.4926-3.4926-2.1213-2.1214-3.4927 3.4927 2.1214 2.1213ZM13.25 4v18.1893h3V4h-3Zm.75.75c-.4142 0-.75-.33579-.75-.75h3c0-1.24264-1.0074-2.25-2.25-2.25v3Zm.75-.75c0 .41421-.3358.75-.75.75v-3c-1.2426 0-2.25 1.00736-2.25 2.25h3Zm0 18.1893V4h-3v18.1893h3Zm-6.0533-2.4319 3.4926 3.4926 2.1214-2.1213-3.4927-3.4927-2.1213 2.1214Zm1.06066 0c-.29289.2929-.76777.2929-1.06066 0l2.1213-2.1214c-.87866-.8786-2.30328-.8786-3.18196 0l2.12132 2.1214Zm0-1.0607c.29294.2929.29284.7678 0 1.0607L7.63604 17.636c-.87868.8787-.87868 2.3033 0 3.182l2.12132-2.1213Zm4.77294 4.773-4.77294-4.773-2.12132 2.1213 4.77296 4.773 2.1213-2.1213Zm-1.0606 0c.2929-.2929.7677-.2929 1.0606 0L12.409 25.591c.8787.8787 2.3033.8787 3.182 0l-2.1213-2.1213Z" mask="url(#a)"/>
</svg>

<svg width="28" height="28" viewBox="0 0 28 28" fill="none" xmlns="http://www.w3.org/2000/svg">
<mask id="path-1-inside-1_11_274" fill="white">
<path fill-rule="evenodd" clip-rule="evenodd" d="M0 14C0 21.732 6.26801 28 14 28C21.732 28 28 21.732 28 14C28 6.26801 21.732 0 14 0C6.26801 0 0 6.26801 0 14ZM14.5303 24.5303L19.3033 19.7574C19.5962 19.4645 19.5962 18.9896 19.3033 18.6967C19.0104 18.4038 18.5355 18.4038 18.2426 18.6967L14.75 22.1893V4C14.75 3.58579 14.4142 3.25 14 3.25C13.5858 3.25 13.25 3.58579 13.25 4V22.1893L9.75736 18.6967C9.46447 18.4038 8.98959 18.4038 8.6967 18.6967C8.40381 18.9896 8.40381 19.4645 8.6967 19.7574L13.4697 24.5303C13.7626 24.8232 14.2374 24.8232 14.5303 24.5303Z"/>
</mask>
<path fill-rule="evenodd" clip-rule="evenodd" d="M0 14C0 21.732 6.26801 28 14 28C21.732 28 28 21.732 28 14C28 6.26801 21.732 0 14 0C6.26801 0 0 6.26801 0 14ZM14.5303 24.5303L19.3033 19.7574C19.5962 19.4645 19.5962 18.9896 19.3033 18.6967C19.0104 18.4038 18.5355 18.4038 18.2426 18.6967L14.75 22.1893V4C14.75 3.58579 14.4142 3.25 14 3.25C13.5858 3.25 13.25 3.58579 13.25 4V22.1893L9.75736 18.6967C9.46447 18.4038 8.98959 18.4038 8.6967 18.6967C8.40381 18.9896 8.40381 19.4645 8.6967 19.7574L13.4697 24.5303C13.7626 24.8232 14.2374 24.8232 14.5303 24.5303Z" fill="#2A2238"/>
<path d="M19.3033 19.7574L18.2426 18.6967L18.2426 18.6967L19.3033 19.7574ZM14.5303 24.5303L15.591 25.591L15.591 25.591L14.5303 24.5303ZM19.3033 18.6967L20.364 17.636L20.364 17.636L19.3033 18.6967ZM18.2426 18.6967L17.182 17.636L17.182 17.636L18.2426 18.6967ZM14.75 22.1893H13.25V25.8107L15.8107 23.25L14.75 22.1893ZM13.25 22.1893L12.1893 23.25L14.75 25.8107V22.1893H13.25ZM9.75736 18.6967L8.6967 19.7574L8.6967 19.7574L9.75736 18.6967ZM8.6967 19.7574L9.75736 18.6967L9.75736 18.6967L8.6967 19.7574ZM13.4697 24.5303L12.409 25.591L12.409 25.591L13.4697 24.5303ZM14 26.5C7.09644 26.5 1.5 20.9036 1.5 14H-1.5C-1.5 22.5604 5.43959 29.5 14 29.5V26.5ZM26.5 14C26.5 20.9036 20.9036 26.5 14 26.5V29.5C22.5604 29.5 29.5 22.5604 29.5 14H26.5ZM14 1.5C20.9036 1.5 26.5 7.09644 26.5 14H29.5C29.5 5.43959 22.5604 -1.5 14 -1.5V1.5ZM1.5 14C1.5 7.09644 7.09644 1.5 14 1.5V-1.5C5.43959 -1.5 -1.5 5.43959 -1.5 14H1.5ZM18.2426 18.6967L13.4697 23.4697L15.591 25.591L20.364 20.818L18.2426 18.6967ZM18.2426 19.7574C17.9497 19.4645 17.9497 18.9896 18.2426 18.6967L20.364 20.818C21.2426 19.9393 21.2426 18.5147 20.364 17.636L18.2426 19.7574ZM19.3033 19.7574C19.0104 20.0503 18.5355 20.0503 18.2426 19.7574L20.364 17.636C19.4853 16.7574 18.0607 16.7574 17.182 17.636L19.3033 19.7574ZM15.8107 23.25L19.3033 19.7574L17.182 17.636L13.6893 21.1287L15.8107 23.25ZM13.25 4V22.1893H16.25V4H13.25ZM14 4.75C13.5858 4.75 13.25 4.41421 13.25 4H16.25C16.25 2.75736 15.2426 1.75 14 1.75V4.75ZM14.75 4C14.75 4.41421 14.4142 4.75 14 4.75V1.75C12.7574 1.75 11.75 2.75736 11.75 4H14.75ZM14.75 22.1893V4H11.75V22.1893H14.75ZM8.6967 19.7574L12.1893 23.25L14.3107 21.1287L10.818 17.636L8.6967 19.7574ZM9.75736 19.7574C9.46447 20.0503 8.98959 20.0503 8.6967 19.7574L10.818 17.636C9.93934 16.7574 8.51472 16.7574 7.63604 17.636L9.75736 19.7574ZM9.75736 18.6967C10.0503 18.9896 10.0502 19.4645 9.75736 19.7574L7.63604 17.636C6.75736 18.5147 6.75736 19.9393 7.63604 20.818L9.75736 18.6967ZM14.5303 23.4697L9.75736 18.6967L7.63604 20.818L12.409 25.591L14.5303 23.4697ZM13.4697 23.4697C13.7626 23.1768 14.2374 23.1768 14.5303 23.4697L12.409 25.591C13.2877 26.4697 14.7123 26.4697 15.591 25.591L13.4697 23.4697Z" fill="#2A2238" mask="url(#path-1-inside-1_11_274)"/>
</svg>
